src/assets/icons/tasks-projects-goals,simple,check.svg

<svg width="48" height="48" viewBox="0 0 48 48" fill="none" xmlns="http://www.w3.org/2000/svg">
<rect opacity="0.2" x="5" y="5" width="38" height="38" rx="4" fill="black"/>
<path d="M22.2506 35.5906C21.7222 36.1365 20.8655 36.1365 20.3371 35.5906L9.39631 24.2895C8.8679 23.7436 8.8679 22.8587 9.39631 22.3129L13.5716 18C14.1 17.4542 14.9568 17.4542 15.4852 18L21.2938 24L32.5148 12.4094C33.0432 11.8635 33.9 11.8635 34.4284 12.4094L38.6037 16.7222C39.1321 17.2681 39.1321 18.153 38.6037 18.6988L22.2506 35.5906Z" fill="black"/>
</svg>

<svg xmlns="http://www.w3.org/2000/svg" width="48" height="48" fill="none" viewBox="0 0 48 48">
  <rect width="38" height="38" x="5" y="5" fill="#000" opacity=".2" rx="4"/>
  <path fill="#000" d="M22.25 35.59a1.323 1.323 0 01-1.913 0l-10.94-11.3a1.43 1.43 0 010-1.977L13.571 18a1.323 1.323 0 011.913 0l5.809 6 11.22-11.59a1.323 1.323 0 011.914 0l4.176 4.312a1.43 1.43 0 010 1.977L22.25 35.59z"/>
</svg>
